icon-themes/sifr_svg/cmd/sc_changesmenu.svg

<svg viewBox="0 0 16 16" xmlns="http://www.w3.org/2000/svg"><path d="m0 2v2h16v-2zm2 3v5h1v-2h1l1 2h1v-.5761719l-1.0605469-1.4238281c.6541544-.1997308 1.0605469-.8166834 1.0605469-1.5 0-.8284271-.6715729-1.5-1.5-1.5h-1.5zm5 0v5h1 2v-1h-2v-1h2v-1h-2v-1h2v-1h-2zm6 0a2 2 0 0 0 -2 2v1a2 2 0 0 0 2 2h1v-1h-1a1 1 0 0 1 -1-1v-1a1 1 0 0 1 1-1h1v-1zm-10 1h1.5c.3.06.5.2640502.5.5 0 .2403346-.2.450342-.5.5h-1.5zm-3 5v2h16v-2z" fill="#555753"/></svg>

<svg xmlns="http://www.w3.org/2000/svg" viewBox="0 0 16 16">
  <path
     style="fill:#555753"
     d="M 0 2 L 0 4 L 16 4 L 16 2 L 0 2 z M 2 5 L 2 10 L 3 10 L 3 8 L 4 8 L 5 10 L 6 10 L 6 9.4238281 L 4.9394531 8 C 5.5936075 7.8002692 6 7.1833166 6 6.5 C 6 5.6715729 5.3284271 5 4.5 5 L 3 5 L 2 5 z M 7 5 L 7 10 L 8 10 L 10 10 L 10 9 L 8 9 L 8 8 L 10 8 L 10 7 L 8 7 L 8 6 L 10 6 L 10 5 L 8 5 L 7 5 z M 13 5 A 2 2 0 0 0 11 7 L 11 8 A 2 2 0 0 0 13 10 L 14 10 L 14 9 L 13 9 A 1 1 0 0 1 12 8 L 12 7 A 1 1 0 0 1 13 6 L 14 6 L 14 5 L 13 5 z M 3 6 L 4.5 6 L 4.5 6 C 4.8 6.06 5 6.2640502 5 6.5 C 5 6.7403346 4.8 6.950342 4.5 7 L 3 7 L 3 6 z M 0 11 L 0 13 L 16 13 L 16 11 L 0 11 z "
     />
</svg>
